resources/svg/minor-note.svg

<svg xmlns="http://www.w3.org/2000/svg" viewBox="0 0 20 20" fill="currentColor"><path fill-rule="evenodd" d="M6 11h8v-2h-8v2zm0 4h8v-2h-8v2zm0-8h4v-2h-4v2zm6-5h-6.5a1.5 1.5 0 0 0-1.5 1.5v13a1.5 1.5 0 0 0 1.5 1.5h9a1.5 1.5 0 0 0 1.5-1.5v-10.5l-4-4z"/></svg>

<svg xmlns="http://www.w3.org/2000/svg" viewBox="0 0 20 20" fill="currentColor"><path fill-rule="evenodd" d="M6 11h8V9H6v2zm0 4h8v-2H6v2zm0-8h4V5H6v2zm6-5H5.5A1.5 1.5 0 0 0 4 3.5v13A1.5 1.5 0 0 0 5.5 18h9a1.5 1.5 0 0 0 1.5-1.5V6l-4-4z"/></svg>
